X:11
T:My Own Blue Bell. WHG.011
R:air
S:W.H.Giles MS,Bampton,Oxfordshire,1839p11
O:England
H:donated by Mrs W.R.Kettlewell to VWML,Apr 1927.
A:Bampton, Oxfordshire
N:End of tune marked “DC”. I have added the triplet mark. PJH.
N:Bar 1 of the B music is as in the MS.
Z:PJHeadford – VMP 2009
M:6/8
L:1/8
Q:3/8=90
K:G
|:G”:$:”|B2c dAG|B2c dBd|dcc cBB|g (3ecA GFD|
B2 c dGG|B2c dgg|age edB|dcA “_G3 in MS”” Fine”G2:|
” B2 A>B^c de/f/ in MS”B| A>B^c d>ef|AB^c d2f|(agf) (fed)|d^cd e2A|
a2f g2e|(gf)d e2A|d^cd a>gf|ed+D.C.+e ” d2 in MS”d^c”:$:”|]

